assets/icons/copy.svg

<svg width="18" height="18" viewBox="0 0 18 18" fill="none" xmlns="http://www.w3.org/2000/svg">
<rect x="1" y="5" width="12" height="12" rx="3" fill="_COLOR_VAR_"/>
<path fill-rule="evenodd" clip-rule="evenodd" d="M14 2.12H8C6.9617 2.12 6.12 2.9617 6.12 4V10C6.12 11.0383 6.9617 11.88 8 11.88H14C15.0383 11.88 15.88 11.0383 15.88 10V4C15.88 2.9617 15.0383 2.12 14 2.12ZM8 1C6.34315 1 5 2.34315 5 4V10C5 11.6569 6.34315 13 8 13H14C15.6569 13 17 11.6569 17 10V4C17 2.34315 15.6569 1 14 1H8Z" fill="_COLOR_VAR_"/>
</svg>

<svg xmlns="http://www.w3.org/2000/svg" width="18" height="18"><rect width="12" height="12" x="1" y="5" rx="3"/><path fill-rule="evenodd" d="M14 2.12H8A1.88 1.88 0 0 0 6.12 4v6A1.88 1.88 0 0 0 8 11.88h6A1.88 1.88 0 0 0 15.88 10V4A1.88 1.88 0 0 0 14 2.12M8 1a3 3 0 0 0-3 3v6a3 3 0 0 0 3 3h6a3 3 0 0 0 3-3V4a3 3 0 0 0-3-3z" clip-rule="evenodd"/></svg>
